src/16/places/user-desktop.svg

<svg width="16.25" xmlns="http://www.w3.org/2000/svg" height="16.25" viewBox="0 0 13 13">
<g style="stroke:#9c7a5f;stroke-width:.8">
<path style="fill:#9c7a5f" d="M 1.566387,10.288936 C 1.3749831,10.269405 1.2148288,10.078001 1.2148288,9.8787848 l 0,-7.7694356 c 0,-0.2148414 0.1874978,-0.4101515 0.3906203,-0.4101515 l 9.5701949,0 c 0.203122,0 0.386714,0.1953101 0.386714,0.4101515 l 0,7.046788 c 0,0.2148413 -0.183592,0.4101512 -0.386714,0.4101512 l -3.7382357,0 0,0.3124964 c 0,0.2148412 -0.1835913,0.4101512 -0.3867138,0.4101512 l -5.4452454,0 c -0.015625,0 -0.027343,0 -0.039062,0 z"/>
<path style="fill:#dfb188" d="M 0.81639618,2.7148102 C 0.59374278,2.7343414 0.40233882,2.9218392 0.406245,3.1249617 l 0,7.7616233 c 0,0.214841 0.21484104,0.410151 0.45702563,0.410151 l 11.27329837,0 c 0.242185,0 0.457026,-0.19531 0.457026,-0.410151 l 0,-7.0428822 c 0,-0.2148413 -0.214841,-0.4101512 -0.457026,-0.4101512 l -4.4022893,0 0,-0.3085899 c 0,-0.2148414 -0.2187472,-0.4101515 -0.4570256,-0.4101515 l -6.41398347,0 c -0.0156247,0 -0.0312497,0 -0.0468745,0 z"/>
</g>
<g style="fill:#9c7a5f" transform="matrix(1.47604 0 0 1.47604 -3.09423 -3.79351)">
<path style="fill-rule:evenodd" d="m 4.332031,5.957031 0,0.542969 0.273438,0 0,-0.40625 c 0,-0.136719 0.132812,-0.136719 0.132812,-0.136719 l 0.40625,0 0,-0.269531 -0.539062,0 c 0,0 -0.273438,0 -0.273438,0.269531 z M 7.855469,5.6875 l 0,0.269531 0.40625,0 c 0,0 0.132812,0 0.132812,0.136719 l 0,0.40625 0.273438,0 0,-0.542969 C 8.667969,5.6875 8.394531,5.6875 8.394531,5.6875 z m -3.523438,2.980469 0,0.539062 c 0,0.273438 0.273438,0.273438 0.273438,0.273438 l 0.539062,0 0,-0.273438 -0.40625,0.00391 C 4.605469,9.207031 4.605469,9.074219 4.605469,9.074219 l 0,-0.40625 z m 4.0625,0 0,0.40625 c 0,0.132812 -0.132812,0.132812 -0.132812,0.132812 l -0.40625,0 0,0.273438 0.539062,0 c 0,0 0.273438,0 0.273438,-0.273438 l 0,-0.539062 z"/>
<path d="m 5.144531,6.769531 0,1.082031 C 5.144531,8.125 5.417969,8.125 5.417969,8.125 l 0.8125,0 C 6.5,8.125 6.5,7.851562 6.5,7.851562 l 0,-0.8125 L 5.957031,6.5 5.417969,6.5 c 0,0 -0.273438,0 -0.273438,0.269531 z m 0.273438,0 0.539062,0 0,0.269531 0.273438,0 0,0.8125 -0.8125,0 z"/>
</g>
</svg>

<svg width="16.25" xmlns="http://www.w3.org/2000/svg" height="16.25" viewBox="0 0 13 13">
<g style="stroke:#9c7a5f;stroke-width:.8">
<path style="fill:#9c7a5f" d="M 1.566387,10.288936 C 1.3749831,10.269405 1.2148288,10.078001 1.2148288,9.8787848 l 0,-7.7694356 c 0,-0.2148414 0.1874978,-0.4101515 0.3906203,-0.4101515 l 9.5701949,0 c 0.203122,0 0.386714,0.1953101 0.386714,0.4101515 l 0,7.046788 c 0,0.2148413 -0.183592,0.4101512 -0.386714,0.4101512 l -3.7382357,0 0,0.3124964 c 0,0.2148412 -0.1835913,0.4101512 -0.3867138,0.4101512 l -5.4452454,0 c -0.015625,0 -0.027343,0 -0.039062,0 z"/>
<path style="fill:#dfb188" d="M 0.81639618,2.7148102 C 0.59374278,2.7343414 0.40233882,2.9218392 0.406245,3.1249617 l 0,7.7616233 c 0,0.214841 0.21484104,0.410151 0.45702563,0.410151 l 11.27329837,0 c 0.242185,0 0.457026,-0.19531 0.457026,-0.410151 l 0,-7.0428822 c 0,-0.2148413 -0.214841,-0.4101512 -0.457026,-0.4101512 l -4.4022893,0 0,-0.3085899 c 0,-0.2148414 -0.2187472,-0.4101515 -0.4570256,-0.4101515 l -6.41398347,0 c -0.0156247,0 -0.0312497,0 -0.0468745,0 z"/>
</g>
<g style="fill:#9c7a5f">
<path style="fill-rule:evenodd" d="M 4.332031 5.957031 L 4.332031 6.5 L 4.605469 6.5 L 4.605469 6.09375 C 4.605469 5.957031 4.738281 5.957031 4.738281 5.957031 L 5.144531 5.957031 L 5.144531 5.6875 L 4.605469 5.6875 C 4.605469 5.6875 4.332031 5.6875 4.332031 5.957031 Z M 7.855469 5.6875 L 7.855469 5.957031 L 8.261719 5.957031 C 8.261719 5.957031 8.394531 5.957031 8.394531 6.09375 L 8.394531 6.5 L 8.667969 6.5 L 8.667969 5.957031 C 8.667969 5.6875 8.394531 5.6875 8.394531 5.6875 Z M 4.332031 8.667969 L 4.332031 9.207031 C 4.332031 9.480469 4.605469 9.480469 4.605469 9.480469 L 5.144531 9.480469 L 5.144531 9.207031 L 4.738281 9.210938 C 4.605469 9.207031 4.605469 9.074219 4.605469 9.074219 L 4.605469 8.667969 Z M 8.394531 8.667969 L 8.394531 9.074219 C 8.394531 9.207031 8.261719 9.207031 8.261719 9.207031 L 7.855469 9.207031 L 7.855469 9.480469 L 8.394531 9.480469 C 8.394531 9.480469 8.667969 9.480469 8.667969 9.207031 L 8.667969 8.667969 Z "/>
<path d="M 5.144531 6.769531 L 5.144531 7.851562 C 5.144531 8.125 5.417969 8.125 5.417969 8.125 L 6.230469 8.125 C 6.5 8.125 6.5 7.851562 6.5 7.851562 L 6.5 7.039062 L 5.957031 6.5 L 5.417969 6.5 C 5.417969 6.5 5.144531 6.5 5.144531 6.769531 Z M 5.417969 6.769531 L 5.957031 6.769531 L 5.957031 7.039062 L 6.230469 7.039062 L 6.230469 7.851562 L 5.417969 7.851562 Z "/>
</g>
</svg>
